X:1
T:Title
%%score { ( 1 3 ) | ( 2 4 ) }
L:1/8
Q:1/4=90
M:6/8
K:Ab
V:1 treble nm="Grand Piano"
V:3 treble 
V:2 bass 
V:4 bass 
V:1
 [CE]2 [Ec] [DB]2 [CA] | A2 B A .F2 | [CE]2 [DF] [CE]2 C | AB[Ec] B3 | .e3 z3 | cBc [Fd]2 F | %6
w: J.~Howard~Entwisle * * *||||||
 AGF E2 d | c2 B [CA]3 | c2 c cBA | e2 f e c2 | [GB]2 [Ac] [Bd]2 [GB] | .[GB]3 z3 | e2 e c2 A | %13
w: |||||||
 ABc [Fd] F2 | AGF E2 A[Q:1/4=87][Q:1/4=84][Q:1/4=82][Q:1/4=79][Q:1/4=76][Q:1/4=73][Q:1/4=70] | %15
w: ||
 .A3 z3 |] %16
w: |
V:2
 [A,,A,]2 [A,,A,] [A,,A,]2 [A,,A,] | [D,F,D]2 [D,F,D] [D,F,D] .[D,A,D]2 | %2
 [A,,A,]2 [A,,A,] [A,,A,]2 [A,,A,] | [C,A,][B,,G,][A,,A,] [E,G,E]3 | %4
 [G,E]B,[E,D][K:treble] [A,CA]2 [A,EA] | .[A,_G]3[K:bass] z3 | %6
 [=D,_C]-[D,G,C][D,A,C] [E,A,=C]2 [E,G,E] | [E,A,E]2 [E,D] [A,,E,]3 | [A,E]2 [A,E] ED[A,CE] | %9
 [A,CA]2 [A,DA] [A,CA] [A,EA]2 | [E,E]2 [E,E] [E,E]2 [E,E] | D,C,B,, A,,3 | %12
 [A,C_G]2 [A,CG] [A,EG]2 [A,CG] | [A,_G]2 [A,G][K:bass] [D,A,] [D,A,D]2 | %14
 [=D,_C]-[D,G,C][D,A,C] [E,A,=C]2 [E,CE] | .[E,B,E]2 E, A,,3 |] %16
V:3
 x6 | x6 | x6 | .E3 z3 | z G[Be] e2 c | x6 | x6 | x6 | x6 | x6 | x6 | E-[EA][EGB] [EAc]3 | x6 | %13
 x6 | x6 | z C[DEG] [CEA]3 |] %16
V:4
 x6 | x6 | x6 | x6 | .E,3[K:treble] z3 | ED[A,_G][K:bass] [D,A,]2 [D,A,D] | .F,3 z3 | x6 | %8
 z3 .A,3 | x6 | x6 | x6 | x6 | x3[K:bass] x3 | .F,3 z3 | x6 |] %16

